X: 3
T: Sonny Brogan's
R: jig
M: 6/8
L: 1/8
K: Emin
B,EF G3 | AGA B3 | B,EF GAB | AFD EDA, |B,EF GFG | AGA B3 | efe dBA | GED E3 :||E2e efe | dBc d3 | B2e efe | dBA GBF|E2e efe | dBc d3 | efe dBA | GED E3:||


Tune 1185	Setting 14455

